!!!OTL: ACH BLUEMLEIN BLAU VERDORRE NICHT
!!!ARE: Europa, Mitteleuropa, Deutschland, Posen
!!!SCT: E0572
!!!YEM: Copyright 1995, estate of Helmut Schaffrath.
**kern
*ICvox
*Ivox
*M2/4
*k[b-e-]
*g:
{8d
=1
8g
8g
8dd
8dd
=2
8.b-
16a
8g}
{8g
=3
8a
8a
8dd
8dd
=4
8cc
8b-
8a}
{8d
=5
8g
8g
8dd
8dd
=6
8.b-
16a
8g
8r}
=7
{8a
8b-
4cc
=8
8b-
8cc
8dd}
{8d
=9
8g
8g
8cc
8b-
=10
4a
8g}
==
!!!AGN: Liebes - Lied
!!!ONB: ESAC (Essen Associative Code) Database: ERK1
!!!AMT: simple duple
!!!AIN: vox
!!!EED: Helmut Schaffrath
!!!EEV: 1.0
*-
